!!!!SEGMENT: pl-cz--iii-37--001-002_bogoimski-tadeusz--aria-andante-regnabit-dominus.krn
!!!cenid: 18xx:680
!!!COM: Bogoimski, Tadeusz
!!!COM-rismid: pe30024244
!!!CDT: ~1800-~1899
!!!CNT:
!!!OTL: Aria - Andante - Regnabit Dominus
!!!PDT: 1839
!!!AGN: Secular; Aria
!!!SMS-siglum: PL-CZ
!!!SMS-shelfmark: III-37
!!!SMS-shelfwork: 002 W
!!!SMS-variant:
!!!SMS-altvar:
!!!NIFC-rismid: 300237592
!!!URL-scan: http://repozytorium.nifc.pl/skany/pl-cz-nut--iii-37
!!!ONB-nifc: UWAGA: części Arii: Nolite confidere, Regnabit Dominus, Rondo
**kern	**kern	**dynam	**kern	**dynam	**kern	**dynam	**kern	**dynam	**kern	**text	**kern	**kern	**kern	**kern	**dynam	**kern
*part11	*part10	*part10	*part9	*part9	*part8	*part8	*part7	*part7	*part6	*part6	*part5	*part4	*part3	*part2	*part2	*part1
*	*group3	*	*group3	*	*group3	*	*group3	*	*	*	*group2	*group2	*group1	*group1	*	*group1
*staff11	*staff10	*	*staff9	*	*staff8	*	*staff7	*	*staff6	*staff6	*staff5	*staff4	*staff3	*staff2	*	*staff1
*Iorgan	*Iempty	*	*Iviola	*	*Ivioln	*	*Ivioln	*	*Iempty	*	*Iempty	*Icor	*Iclars	*Iclars	*	*Iflt
*I"Organo	*I"Baſso.	*	*I"Alto Viola.	*	*I"Violino IIdo	*	*I"Violino 1mo	*	*I"Baſs. Solo.	*	*	*I"Corno 1mo et 2do in A.	*I"Clarinetto 2do in A.	*I"Clarinetto 1mo in A.	*	*I"Flauto
*I'org	*I'cb	*	*I'a-vla	*	*I'vl II	*	*I'vl I	*	*I'B	*	*	*I'cor I et II	*I'cl II	*I'cl I	*	*I'fl
*clefF4	*clefF4	*	*clefC3	*	*clefG2	*	*clefG2	*	*clefF4	*	*clefG2	*clefG2	*clefG2	*clefG2	*	*clefG2
*	*ITrd0c0	*	*	*	*	*	*	*	*	*	*ITrd2c3	*ITrd2c3	*ITrd2c3	*ITrd2c3	*	*
*k[f#c#g#]	*k[f#c#g#]	*	*k[c#f#g#]	*	*k[f#c#g#]	*	*k[f#c#g#]	*	*k[f#c#g#]	*	*k[f#c#g#]	*k[f#c#g#]	*k[f#c#g#]	*k[f#c#g#]	*	*k[f#c#g#]
*A:	*A:	*	*A:	*	*A:	*	*A:	*	*A:	*	*A:	*A:	*A:	*A:	*	*A:
*M4/4	*M4/4	*	*M4/4	*	*M4/4	*	*M4/4	*	*M4/4	*	*M4/4	*M4/4	*M4/4	*M4/4	*	*M4/4
*met(c)	*met(c)	*	*met(c)	*	*met(c)	*	*met(c)	*	*met(c)	*	*met(c)	*met(c)	*met(c)	*met(c)	*	*met(c)
*	*	*	*	*	*	*	*^	*	*	*	*	*	*	*	*	*
!	!	!	!	!	!LO:TX:t=P:problem:kolejność znaków ff# cc# g#	!	!	!	!	!	!	!	!	!	!	!	!
!	!	!	!LO:TX:t=P:problem:kolejność znaków c# F# G#	!	!LO:TX:a:t=legat.	!	!LO:TX:t=P:problem:kolejność znaków ff# cc# g#	!	!	!	!	!	!	!	!	!	!LO:TX:t=P:problem:kolejność znaków ff# cc# g#
!LO:TX:a:i:t=Andante	!LO:TX:a:i:t=Andante	!	!LO:TX:a:i:t=Andante.	!	!LO:TX:a:i:t=Andante	!	!LO:TX:a:i:t=Andante	!	!	!LO:TX:a:i:t=Andante.	!	!	!LO:TX:a:i:t=Andande	!LO:TX:a:i:t=Andante	!LO:TX:a:i:t=Andante.	!	!LO:TX:a:B:t=Andant&colon;
4r	4r	.	4r	.	4r	.	8.ee/L	4r	.	4r	.	4r	4r	4r	8.e\L	.	(8.ee\L
!	!	!LO:DY:b	!	!	!	!	!	!	!	!	!	!	!	!	!LO:TX:b:t=dol&colon;	!	!
.	.	p	.	.	.	.	16ccc#/Jk	.	.	.	.	.	.	.	16cc#\Jk	.	16ccc#\Jk)
*	*	*	*	*	*	*	*v	*v	*	*	*	*	*	*	*	*	*
=1	=1	=1	=1	=1	=1	=1	=1	=1	=1	=1	=1	=1	=1	=1	=1	=1
*	*	*	*	*	*	*	*	*	*	*	*	*	*	*2\right	*	*2\right
!	!	!	!	!	!LO:TX:t=P:problem:niejednoznaczny zapis łuków [przyjęto łuk na 4 ósemkach]:global	!	!LO:TX:t=P:problem:niejednoznaczny zapis łuków [przyjęto łuk na 4 ósemkach]:global	!	!	!	!	!	!	!	!	!
!	!	!	!	!LO:DY:b:rj:t=p	!	!LO:DY:b:rj	!	!LO:DY:b:rj	!LO:TX:a:t=4.	!	!	!	!	!	!	!
4AA/	4AA/	.	(8A\L	p	(8A/L	p	(>8c#/L	p	00r	.	8A\	8a\	8A/L	2cc#\	.	2ccc#\
.	.	.	8c#\	.	8e/	.	8e/	.	.	.	8r	8r	8e/	.	.	.
4r	4r	.	8e\	.	8a/	.	8cc#/	.	.	.	8a\	8cc#\	8a/	.	.	.
.	.	.	8c#\J)	.	8e/J)	.	8e/J)	.	.	.	8r	8r	8e/J	.	.	.
4E\	4E\	.	(8B\L	.	(8B/L	.	(8b/L	.	.	.	8E/	8e\	8g#\L	8b\L	.	8bb\L
.	.	.	8d\	.	8e/	.	8e/	.	.	.	8r	8r	8e\	(16dd\L	.	(16ddd\L
.	.	.	.	.	.	.	.	.	.	.	.	.	.	16cc#\JJ	.	16ccc#\JJ)
4r	4r	.	8e\	.	8g#/	.	8d/	.	.	.	8e/	8b\	8g#\	8ee\L	.	8eee\L
.	.	.	8d\J)	.	8e/J)	.	8e/J)	.	.	.	8r	8r	8e\J	16dd\L)	.	(16ddd\L
.	.	.	.	.	.	.	.	.	.	.	.	.	.	16b\JJ	.	16bb\JJ)
=2	=2	=2	=2	=2	=2	=2	=2	=2	=2	=2	=2	=2	=2	=2	=2	=2
!	!	!	!	!	!	!	!	!	!	!	!	!	!	!	!	!LO:TX:t=P:problem:niejednoznaczny zapis łuk/ligatura
8A\	8A\	.	(8A\L	.	(8A/L	.	(8c#/L	.	.	.	8c#/	8a\	8A/L	(4b\	.	[4bb\
8r	8r	.	8c#\	.	8c#/	.	8e/	.	.	.	8r	8r	8e/	.	.	.
8E\	8E\	.	8e\	.	8e/	.	8a/	.	.	.	8e/	8cc#\	8c#/	16b\LL	.	16bb\LL]
.	.	.	.	.	.	.	.	.	.	.	.	.	.	16a\	.	16aa\
8r	8r	.	8c#\J)	.	8c#/J)	.	8e/J)	.	.	.	8r	8r	8e/J	16cc#\	.	16ccc#\
.	.	.	.	.	.	.	.	.	.	.	.	.	.	16b\JJ)	.	16bb\JJ
*	*	*	*rep	*	*rep	*	*rep	*	*	*	*	*	*	*	*	*
8AA/	4AA/	.	(8A\L	.	(8A/L	.	(8c#/L	.	.	.	8c#/	8a\	4A/	8a\	.	8aa\
8r	.	.	8c#\	.	8c#/	.	8e/	.	.	.	8r	8r	.	8r	.	8r
4r	4r	.	8e\	.	8e/	.	8a/	.	.	.	4r	4r	4r	8.e/L	.	8.ee\L
.	.	.	8c#\J)	.	8c#/J)	.	8e/J)	.	.	.	.	.	.	.	.	.
*	*	*	*Xrep	*	*Xrep	*	*Xrep	*	*	*	*	*	*	*	*	*
.	.	.	.	.	.	.	.	.	.	.	.	.	.	16e/Jk	.	16ee\Jk
!	!	!	!	!	!	!	!	!	!	!	!	!	!	!	!	!LO:LB:g=original
=3	=3	=3	=3	=3	=3	=3	=3	=3	=3	=3	=3	=3	=3	=3	=3	=3
*	*	*	*tremolo	*	*tremolo	*	*	*	*	*	*	*	*	*	*	*
*	*	*	*2\right	*	*	*	*	*	*	*	*	*	*	*	*	*
8A\	8A\	.	8c#\L	.	(8A/L	.	(8c#/L	.	.	.	4A/	4a\	8A/L	4e/	.	4ee\
8r	8r	.	8e\	.	8c#/	.	8a/	.	.	.	.	.	8e/	.	.	.
8F#\	8F#\	.	8c#\	.	8A/	.	8f#/	.	.	.	4r	4r	8a/	4cc#\	.	4ccc#\
8r	8r	.	8e\J	.	8c#/J)	.	8a/J)	.	.	.	.	.	8e/J	.	.	.
*	*	*	*Xtremolo	*	*	*	*	*	*	*	*	*	*	*	*	*
!	!	!	!LO:TX:t=P:problem:mixed beam	!	!	!	!	!	!	!	!	!	!	!	!	!
8D\	8D\	.	8d\L	.	(8d/L	.	(8d/L	.	.	.	2r	2r	8d/L	4b\	.	4bb\
8r	8r	.	8f#\	.	8B/	.	8b/	.	.	.	.	.	8f#/	.	.	.
8D#X\	8D#X\	.	8f#\	.	8d#X/	.	8f#/	.	.	.	.	.	8d#X/	4b\	.	4bb\
8r	8r	.	8B/J	.	8B/J)	.	8b/J)	.	.	.	.	.	8f#/J	.	.	.
!LO:LB:g=original	!LO:LB:g=original	!	!LO:LB:g=original	!	!LO:LB:g=original	!	!LO:LB:g=original	!	!	!	!	!	!LO:LB:g=original	!	!	!
=4	=4	=4	=4	=4	=4	=4	=4	=4	=4	=4	=4	=4	=4	=4	=4	=4
4E\	4E\	.	8G#/L	.	(8e/L	.	(8g#/L	.	.	.	2r	2r	4e/	(4b\	.	[4bb\
.	.	.	8B/	.	8B/	.	8b/	.	.	.	.	.	.	.	.	.
4BB\	4BB\	.	8A/	.	8d#X/	.	8f#/	.	.	.	.	.	4r	16b\LL	.	16bb\LL]
.	.	.	.	.	.	.	.	.	.	.	.	.	.	16a\	.	16aa\
.	.	.	8B/J	.	8B/J)	.	8b/J)	.	.	.	.	.	.	16g#\	.	16gg#\
.	.	.	.	.	.	.	.	.	.	.	.	.	.	16f#\JJ)	.	16ff#\JJ
!	!	!	!	!	!	!	!	!	!	!	!LO:TX:t=P:problem:mixed beam	!	!	!LO:TX:t=P:problem:mixed beam	!	!
4E\	4E\	.	8G#/L	.	(8G#/L	.	8e/L	.	.	.	8E/L	8e\L	8e\L	8e/L	.	2eeT\
.	.	.	8B/	.	8B/	.	8d/	.	.	.	8b\	8dd\	8b\	8dd\	.	.
4r	4r	.	8A/	.	8A/	.	8c#/	.	.	.	8a\	8cc#\	8a\	8cc#\	.	.
.	.	.	8G#/J	.	8G#/J)	.	8B/J	.	.	.	8g#\J	8b\J	8g#\J	8b\J	.	.
!	!	!	!	!	!	!	!	!	!	!	!	!	!	!LO:LB:g=original	!	!
=5	=5	=5	=5	=5	=5	=5	=5	=5	=5	=5	=5	=5	=5	=5	=5	=5
!	!	!	!	!	!	!	!	!	!	!	!LO:TX:a:t=4.	!LO:TX:a:t=4.	!LO:TX:a:t=4.	!LO:TX:a:t=4.	!	!LO:TX:a:t=4.
4AA/	4AA/	.	8A\L	.	(8A/L	.	(8c#/L	.	4.E\	Re-	00r	00r	00r	00r	.	00r
.	.	.	8c#\	.	8e/	.	8e/	.	.	.	.	.	.	.	.	.
4r	4r	.	8e\	.	8a/	.	8cc#/	.	.	.	.	.	.	.	.	.
.	.	.	8c#\J	.	8e/J)	.	8e/J)	.	8c#\	-gna-	.	.	.	.	.	.
*	*	*	*rep	*	*	*	*	*	*2\right	*	*	*	*	*	*	*
4A\	4A\	.	8A\L	.	(8A/L	.	(8c#/L	.	2c#\	-bit	.	.	.	.	.	.
.	.	.	8c#\	.	8c#/	.	8e/	.	.	.	.	.	.	.	.	.
4r	4r	.	8e\	.	8e/	.	8a/	.	.	.	.	.	.	.	.	.
.	.	.	8c#\J	.	8c#/J)	.	8e/J)	.	.	.	.	.	.	.	.	.
*	*	*	*Xrep	*	*	*	*	*	*	*	*	*	*	*	*	*
=6	=6	=6	=6	=6	=6	=6	=6	=6	=6	=6	=6	=6	=6	=6	=6	=6
4E\	4E\	.	8B\L	.	8B/L	.	(8d/L	.	8B\L	Do-	.	.	.	.	.	.
.	.	.	8d\	.	8e/	.	8e/	.	16d\L	.	.	.	.	.	.	.
.	.	.	.	.	.	.	.	.	16c#\JJ	.	.	.	.	.	.	.
4r	4r	.	8e\	.	8g#/	.	8b/	.	8e\	.	.	.	.	.	.	.
.	.	.	8d\J	.	8e/J	.	8e/J)	.	16d\LL	-mi-	.	.	.	.	.	.
.	.	.	.	.	.	.	.	.	16c#\JJ	.	.	.	.	.	.	.
8A\	8A\	.	8A\L	.	8A/L	.	(8c#/L	.	4.B\	-nus	.	.	.	.	.	.
8r	8r	.	8c#\	.	8c#/	.	8e/	.	.	.	.	.	.	.	.	.
8E\	8E\	.	8e\	.	8e/	.	8a/	.	.	.	.	.	.	.	.	.
*	*	*	*	*	*	*	*	*	*Xtuplet	*	*	*	*	*	*	*
!	!	!	!	!	!	!	!	!	!LO:TUP:a:problem:klamra łukowa	!	!	!	!	!	!	!
8r	8r	.	8c#\J	.	8c#/J	.	8e/J)	.	24A\LL	in	.	.	.	.	.	.
.	.	.	.	.	.	.	.	.	24c#\	.	.	.	.	.	.	.
.	.	.	.	.	.	.	.	.	24B\JJ	.	.	.	.	.	.	.
!	!	!	!	!	!	!	!	!	!LO:LB:g=original	!	!	!	!	!	!	!
=7	=7	=7	=7	=7	=7	=7	=7	=7	=7	=7	=7	=7	=7	=7	=7	=7
4AA/	4AA/	.	8A\L	.	8A/L	.	(8c#/L	.	(4.A\	sae-	.	.	.	.	.	.
.	.	.	8c#\	.	8c#/	.	8e/	.	.	.	.	.	.	.	.	.
4r	4r	.	8e\	.	8e/	.	8a/	.	.	.	.	.	.	.	.	.
.	.	.	8c#\J	.	8c#/J	.	8e/J)	.	8c#\)	.	.	.	.	.	.	.
*	*	*	*tremolo	*	*	*	*	*	*	*	*	*	*	*	*	*
!	!	!	!	!	!	!	!	!LO:HP:b:t=cres	!	!	!	!	!	!	!	!
4A\	4A\	.	8c#\L	.	8A/L	.	8c#/L	<	(4.c#\	.	.	.	.	.	.	.
.	.	.	8e\	.	8c#/	.	8cc#/	.	.	.	.	.	.	.	.	.
4F#\	4F#\	.	8c#\	.	8A/	.	8a 8f#/	.	.	.	.	.	.	.	.	.
.	.	.	8e\J	.	8c#/J	.	8cc#/J	.	8B\)	-cu-	.	.	.	.	.	.
*	*	*	*Xtremolo	*	*	*	*	*	*	*	*	*	*	*	*	*
=8	=8	=8	=8	=8	=8	=8	=8	=8	=8	=8	=8	=8	=8	=8	=8	=8
8D\	8D\	.	8d\L	.	8d/L	.	8f#/L	.	4B\	-la,	.	.	.	.	.	.
8r	8r	.	8f#\	.	8f#/	.	8b/	.	.	.	.	.	.	.	.	.
8D#X\	8D#X\	.	8d#X\	.	8d#X/	.	8a/	.	4B\	in	.	.	.	.	.	.
8r	8r	.	8B\J	.	8f#/J	.	8b/J	.	.	.	.	.	.	.	.	.
8E\	8E\	.	8e\L	.	8e/L	.	(8g#/L	.	4B\	sae-	.	.	.	.	.	.
8r	8r	.	8B\	.	8B/	.	8b/	.	.	.	.	.	.	.	.	.
8BB\	8BB/	.	8f#\	.	8d#X/	.	8f#/	.	16B\LL	.	.	.	.	.	.	.
.	.	.	.	.	.	.	.	.	16A\	.	.	.	.	.	.	.
8r	8r	.	8B\J	.	8B/J	.	8b/J)	.	16G#\	.	.	.	.	.	.	.
.	.	.	.	.	.	.	.	.	16F#\JJ	-cu-	.	.	.	.	.	.
!LO:LB:g=original	!LO:LB:g=original	!	!	!	!LO:LB:g=original	!	!LO:LB:g=original	!	!	!	!LO:LB:g=original	!LO:LB:g=original	!	!	!	!\
=9	=9	=9	=9	=9	=9	=9	=9	=9	=9	=9	=9	=9	=9	=9	=9	=9
4E\	4E\	.	8e\L	.	8e/L	.	(8e/L	.	4E\	-la	8E/L	8e\L	8e\L	(8e\L	.	2eeT\
.	.	.	8B\	.	8G#/	.	8B/	.	.	.	8e/	8b\	8g#\	8b\	.	.
4r	4r	.	8c#\	.	8A/	.	8c#/	.	4r	.	8a/	8cc#\	8a\	8cc#\	.	.
.	.	.	8d\J	.	8B/J	.	8d/J)	.	.	.	8b/J	8dd\J	8b\J	8dd\J)	.	.
4A\	4A\	.	8A\L	.	8A/L	.	(8c#/L	.	(4.E\	De-	2r	2r	2r	2r	.	2r
.	.	.	8c#\	.	8c#/	.	8e/	.	.	.	.	.	.	.	.	.
4r	4r	.	8e\	.	8e/	.	8a/	.	.	.	.	.	.	.	.	.
.	.	.	8c#\J	.	8c#/J	.	8e/J)	.	8c#\)	.	.	.	.	.	.	.
!	!	!	!LO:LB:g=original	!	!	!	!	!	!	!	!	!	!	!	!	!
=10	=10	=10	=10	=10	=10	=10	=10	=10	=10	=10	=10	=10	=10	=10	=10	=10
!	!	!	!	!LO:DY:b:rj:t=p	!	!	!	!	!	!	!LO:TX:a:t=3.	!LO:TX:a:t=3.	!LO:TX:a:t=3.	!LO:TX:a:t=3.	!	!LO:TX:a:t=3.
4AA/	4AA/	.	8A\L	p	8A/L	.	(8c#/L	.	2c#\	-us	0r	0r	0r	0r	.	0r
.	.	.	8c#\	.	8c#/	.	8e/	.	.	.	.	.	.	.	.	.
4r	4r	.	8e\	.	8e/	.	8a/	.	.	.	.	.	.	.	.	.
.	.	.	8c#\J	.	8c#/J	.	8e/J)	.	.	.	.	.	.	.	.	.
8F#\	8F#\	.	8A#X\L	.	8A#/L	.	(8c#/L	.	8F#\L	tu-	.	.	.	.	.	.
8r	8r	.	8c#\	.	8c#/	.	8e/	.	8c#\J	.	.	.	.	.	.	.
8A#X\	8A#X\	.	8A#\	.	8A#/	.	8f#/	.	8d\L	-us	.	.	.	.	.	.
8r	8r	.	8c#\J	.	8c#/J	.	8e/J)	.	8c#\J	.	.	.	.	.	.	.
!	!	!	!	!	!	!	!	!	!LO:LB:g=original	!	!	!	!	!	!	!
=11	=11	=11	=11	=11	=11	=11	=11	=11	=11	=11	=11	=11	=11	=11	=11	=11
4B\	4B\	.	8B\L	.	8B/L	.	(8d/L	.	8.B\L|	in	.	.	.	.	.	.
.	.	.	8d\	.	8d/	.	8f#/	.	.	.	.	.	.	.	.	.
.	.	.	.	.	.	.	.	.	(32d\LL	Si-	.	.	.	.	.	.
.	.	.	.	.	.	.	.	.	32c#\JJJ)	.	.	.	.	.	.	.
4r	4r	.	8f#\	.	8B/	.	8b/	.	4B\	-on	.	.	.	.	.	.
.	.	.	8d\J	.	8d/J	.	8f#/J)	.	.	.	.	.	.	.	.	.
*	*	*	*tremolo	*	*rep	*	*rep	*	*	*	*	*	*	*	*	*
4D\	4D\	.	8B\L	.	8B/L	.	(8d/L	.	8r	.	.	.	.	.	.	.
.	.	.	8d\	.	8d/	.	8f#/	.	8F#\	in	.	.	.	.	.	.
4r	4r	.	8B\	.	8B/	.	8b/	.	8c#\	ge-	.	.	.	.	.	.
.	.	.	8d\J	.	8d/J	.	8f#/J)	.	8B\	-ne-	.	.	.	.	.	.
*	*	*	*	*	*Xrep	*	*Xrep	*	*	*	*	*	*	*	*	*
=12	=12	=12	=12	=12	=12	=12	=12	=12	=12	=12	=12	=12	=12	=12	=12	=12
4E\	4E\	.	8D/L	.	8A/L	.	(8c#/L	.	8c#\	-ra-	1r	1r	1r	1r	.	1r
.	.	.	8A/	.	8e/	.	8e/	.	8B\	-ti-	.	.	.	.	.	.
4r	4r	.	8c#/	.	8c#/	.	8a/	.	4A\	-o	.	.	.	.	.	.
.	.	.	8A/J	.	8A/J	.	8e/J)	.	.	.	.	.	.	.	.	.
4E\	4E\	.	8D/L	.	8B/L	.	(8d/L	.	8r	.	.	.	.	.	.	.
.	.	.	8B/	.	8e/	.	8e/	.	(8A\	o-	.	.	.	.	.	.
4r	4r	.	8G#/	.	8d/	.	8g#/	.	8c#\	.	.	.	.	.	.	.
.	.	.	8B/J	.	8e/J	.	8e/J)	.	8B\)	.	.	.	.	.	.	.
=13	=13	=13	=13	=13	=13	=13	=13	=13	=13	=13	=13	=13	=13	=13	=13	=13
4A\	4A\	.	8A\L	.	8A/L	.	(8c#/L	.	4A\	-nem	8c#/	8a\	4a\	4cc#\	.	4aa\
.	.	.	8c#\	.	8c#/	.	8e/	.	.	.	8r	8r	.	.	.	.
4r	4r	.	8e\	.	8e/	.	8a/	.	4r	.	8e/	8cc#\	8.cc#\L	8.ee\L	.	8.ccc#\L
.	.	.	8c#\J	.	8c#/J	.	8e/J)	.	.	.	8r	8r	.	.	.	.
.	.	.	.	.	.	.	.	.	.	.	.	.	16cc#\Jk	16ee\Jk	.	16ccc#\Jk
*	*	*	*rep	*	*rep	*	*rep	*	*	*	*	*	*	*	*	*
4AA/	4AA/	.	8A\L	.	8A/L	.	(8c#/L	.	4r	.	8c#/	8a\	4a\	4cc#\	.	4aa\
.	.	.	8c#\	.	8c#/	.	8e/	.	.	.	8r	8r	.	.	.	.
4r	4r	.	8e\	.	8e/	.	8a/	.	(8E\	re-	4r	4r	4r	4r	.	4r
.	.	.	8c#\J	.	8c#/J	.	8e/J)	.	8c#\)	.	.	.	.	.	.	.
*	*	*	*Xrep	*	*Xrep	*	*Xrep	*	*	*	*	*	*	*	*	*
!	!	!	!	!	!	!	!	!	!LO:LB:g=original	!	!	!	!	!	!	!
=14	=14	=14	=14	=14	=14	=14	=14	=14	=14	=14	=14	=14	=14	=14	=14	=14
!	!	!	!	!	!	!	!	!	!	!	!LO:TX:a:t=4	!LO:TX:a:t=4	!LO:TX:a:t=4.	!LO:TX:a:t=4.	!	!LO:TX:a:t=4.
4A\	4A\	.	8A/L	.	8A/L	.	8e/L	.	4c#\	-gna-	00r	00r	00r	00r	.	00r
.	.	.	8E/	.	8e/	.	8a/	.	.	.	.	.	.	.	.	.
4r	4r	.	8c#/	.	8a/	.	8cc#/	.	(8.c#\	.	.	.	.	.	.	.
.	.	.	8E/J	.	8e/J	.	8a/J	.	.	.	.	.	.	.	.	.
.	.	.	.	.	.	.	.	.	16c#\)	-bit	.	.	.	.	.	.
!	!	!	!LO:TX:t=P:problem:mixed beam	!	!	!LO:HP:t=cres	!	!	!	!	!	!	!	!	!	!
4F#\	4F#\	.	8F#/L	.	8c#/L	<	8e/L	.	4c#\	De-	.	.	.	.	.	.
.	.	.	8e\	.	8e/	.	8f#/	.	.	.	.	.	.	.	.	.
4r	4r	.	8c#\	.	8f#/	.	8a#X/	.	4F#\	-us	.	.	.	.	.	.
.	.	.	8e\J	.	8e/J	.	8f#/J	.	.	.	.	.	.	.	.	.
!LO:LB:g=original	!LO:LB:g=original	!	!	!	!LO:LB:g=original	!	!LO:LB:g=original	!	!	!	!	!	!	!	!	!
=15	=15	=15	=15	=15	=15	=15	=15	=15	=15	=15	=15	=15	=15	=15	=15	=15
4F#\	4F#\	.	8c#\L	.	8A#/L	.	(8c#/L	.	16r	.	.	.	.	.	.	.
.	.	.	.	.	.	.	.	.	16F#\LL	Do-	.	.	.	.	.	.
.	.	.	8e\	.	8c#/	.	8e/	.	16G#\	.	.	.	.	.	.	.
.	.	.	.	.	.	.	.	.	16A#X\JJ	.	.	.	.	.	.	.
4r	4r	.	8c#\	.	8A#/	.	8f#/	.	(16B\LL	-mi-	.	.	.	.	.	.
.	.	.	.	.	.	.	.	.	16c#\)	.	.	.	.	.	.	.
.	.	.	8e\J	.	8c#/J	.	8e/J)	.	(16d\	-nus	.	.	.	.	.	.
.	.	.	.	.	.	.	.	.	16c#\JJ)	.	.	.	.	.	.	.
4BB/	4BB/	.	8d\L	.	8B/L	.	(8d/L	.	8B\	De-	.	.	.	.	.	.
.	.	.	8f#\	.	8d/	.	8f#/	.	16e\LL	.	.	.	.	.	.	.
.	.	.	.	.	.	.	.	.	16d\JJ	.	.	.	.	.	.	.
4r	4r	.	8d\	.	8B/	.	8b/	.	4B\	-us	.	.	.	.	.	.
.	.	.	8f#\J	.	8d/J	.	8f#/J)	.	.	.	.	.	.	.	.	.
!	!	!	!LO:LB:g=original	!	!	!	!	!	!	!	!	!	!	!	!	!
=16	=16	=16	=16	=16	=16	=16	=16	=16	=16	=16	=16	=16	=16	=16	=16	=16
4D\	4D\	.	8D/L	.	8B/L	.	(8d/L	.	8r	.	.	.	.	.	.	.
.	.	.	8F#/	.	8d/	.	8f#/	.	8d\	Do-	.	.	.	.	.	.
4r	4r	.	8B/	.	8c#/	.	8e/	.	8c#\	-mi-	.	.	.	.	.	.
.	.	.	8F#/J	.	8B/J	.	8d/J)	.	8B\	-nus	.	.	.	.	.	.
4E\	4E\	.	8E/L	.	8A/L	.	(8c#/L	.	8c#\L	De-	.	.	.	.	.	.
.	.	.	8A/	.	8c#/	.	8e/	.	8B\J	.	.	.	.	.	.	.
4r	4r	.	8c#/	.	8B/	.	8d/	.	4A\	-us	.	.	.	.	.	.
.	.	.	8A/J	.	8A/J	.	8c#/J)	.	.	.	.	.	.	.	.	.
*	*	*	*	*	*Xtremolo	*	*	*	*	*	*	*	*	*	*	*
!	!	!	!	!	!	!	!	!	!LO:LB:g=original	!	!	!	!	!	!	!
=17	=17	=17	=17	=17	=17	=17	=17	=17	=17	=17	=17	=17	=17	=17	=17	=17
4E\	4E\	.	8E/L	.	8G#/L	.	(8B/L	.	8r	.	.	.	.	.	.	.
.	.	.	8B/	.	8e/	.	8d/	.	8E\	De-	.	.	.	.	.	.
4r	4r	.	8G#/	.	8d/	.	8e/	.	8c#\	-us	.	.	.	.	.	.
.	.	.	8B/J	.	8e/J	.	8d/J)	.	8B\	tu-	.	.	.	.	.	.
4A\	4A\	.	8r	.	8r	.	8r	.	4A\	-us	.	.	.	.	.	.
*	*	*	*	*	*	*	*tremolo	*	*	*	*	*	*	*	*	*
.	.	.	8e 8c#\L	.	8eL 8c#/	.	8e 8c#/L	.	.	.	.	.	.	.	.	.
4r	4r	.	8e 8c#\	.	8e 8c#/	.	8e 8c#/	.	4r	.	.	.	.	.	.	.
.	.	.	8e 8c#\J	.	8eJ 8c#/	.	8e 8c#/J	.	.	.	.	.	.	.	.	.
!	!	!	!	!	!	!	!	!	!	!	!	!	!LO:LB:g=original	!	!	!LO:LB:g=original
=18	=18	=18	=18	=18	=18	=18	=18	=18	=18	=18	=18	=18	=18	=18	=18	=18
!	!	!	!	!	!	!	!	!	!LO:TX:a:t=2.	!	!	!	!	!	!	!
4AA/	4AA/	.	8r	.	8r	.	8r	.	0r	.	4A/	4a\	8A/L	8r	.	8.r
*	*	*	*	*	*tremolo	*	*	*	*	*	*	*	*	*	*	*
.	.	.	8e 8c#\L	.	8A/L	.	8e 8c#/L	.	.	.	.	.	8e/	8ee\L	.	.
.	.	.	.	.	.	.	.	.	.	.	.	.	.	.	.	16eee\KL
4r	4r	.	8e 8c#\	.	8A/	.	8e 8c#/	.	.	.	4r	4r	8c#/	(8.ff#\	.	8.fff#\
.	.	.	8e 8c#\J	.	8A/J	.	8e 8c#/J	.	.	.	.	.	8e/J	.	.	.
.	.	.	.	.	.	.	.	.	.	.	.	.	.	16ee\Jk)	.	16eee\Jk
!	!	!	!	!	!	!	!	!	!	!	!	!	!	!LO:TX:t=P:problem:mixed beam	!	!
4E\	4E\	.	8r	.	8r	.	8r	.	.	.	8e/	8b\	8B/L	8.ee\L	.	(8.eee\L
.	.	.	8d 8B\L	.	8e 8B/L	.	8e 8d/L	.	.	.	8r	8r	8e/	.	.	.
.	.	.	.	.	.	.	.	.	.	.	.	.	.	16g#/Jk	.	16gg#\Jk)
4r	4r	.	8d 8B\	.	8e 8B/	.	8e 8d/	.	.	.	8.e/L	8.b\L	8d/	4g#/	.	4gg#\
.	.	.	8d 8B\J	.	8e 8B/J	.	8e 8d/J	.	.	.	.	.	8e/J	.	.	.
.	.	.	.	.	.	.	.	.	.	.	16e/Jk	16b\Jk	.	.	.	.
=19	=19	=19	=19	=19	=19	=19	=19	=19	=19	=19	=19	=19	=19	=19	=19	=19
4E\	4E\	.	8r	.	8r	.	8r	.	.	.	4e/	4b\	8E/L	8r	.	8r
.	.	.	8d 8B\L	.	8e 8B/L	.	8e 8d/L	.	.	.	.	.	8e/	8ee\L	.	8eee\L
4r	4r	.	8d 8B\	.	8e 8B/	.	8e 8d/	.	.	.	4r	4r	8d/	8ff#\	.	8fff#\
.	.	.	8d 8B\J	.	8e 8B/J	.	8e 8d/J	.	.	.	.	.	8e/J	8ee\J	.	8eee\J
4A\	4A\	.	8r	.	8r	.	8r	.	.	.	4A/	4a\	8.b\L	(8.bb\L	.	(8.bb\L
.	.	.	8e 8c#\L	.	8e 8A/L	.	8e 8c#/L	.	.	.	.	.	.	.	.	.
.	.	.	.	.	.	.	.	.	.	.	.	.	16a\Jk	16aa\Jk)	.	16aa\Jk)
4r	4r	.	8e 8c#\	.	8e 8A/	.	8e 8c#/	.	.	.	8.a\L	8.cc#\L	8e\	4cc#\	.	4ccc#\
.	.	.	8e 8c#\J	.	8e 8A/J	.	8e 8c#/J	.	.	.	.	.	8r	.	.	.
!	!	!	!LO:TX:b:i:t=segue	!LO:DY:b:t=p	!	!	!	!	!	!	!	!	!	!	!	!
.	.	.	.	p	.	.	.	.	.	.	16a\Jk	16cc#\Jk	.	.	.	.
*	*	*	*Xtremolo	*	*Xtremolo	*	*	*	*	*	*	*	*	*	*	*
!	!	!	!LO:PB:g=original	!	!LO:LB:g=original	!	!	!	!	!	!	!	!	!LO:LB:g=original	!	!
=20	=20	=20	=20	=20	=20	=20	=20	=20	=20	=20	=20	=20	=20	=20	=20	=20
!	!	!	!	!LO:DY:b	!	!	!	!	!	!	!	!	!	!	!	!
4AA/	4AA/	.	8r	p	8r	.	8r	.	2r	.	4A/	4a\	8A/L	8r	.	8r
.	.	.	8c#\L	.	8A/L	.	8e 8c#/L	.	.	.	.	.	8c#/	(8a\L	.	8aa\L
4r	4r	.	8e\	.	8c#/	.	8e 8c#/	.	.	.	4r	4r	8f#/	8ff#\)	.	(8fff#\
.	.	.	8c#\J	.	8A/J	.	8e 8c#/J	.	.	.	.	.	8e/J	8ee\J	.	8eee\J)
*	*	*	*	*	*	*	*Xtremolo	*	*	*	*	*	*	*	*	*
4E\	4E\	.	8r	.	8r	.	8r	.	4r	.	2r	2r	2r	2r	.	2r
.	.	.	8G#/L	.	8e/L	.	(8e/L	.	.	.	.	.	.	.	.	.
4r	4r	.	8B/	.	8g#/	.	8b/	.	(8E\	in	.	.	.	.	.	.
.	.	.	8G#/J	.	8e/J	.	8e/J)	.	8G#\)	.	.	.	.	.	.	.
!	!	!	!	!	!	!	!LO:LB:g=original	!	!	!	!LO:LB:g=original	!LO:LB:g=original	!	!	!	!
=21	=21	=21	=21	=21	=21	=21	=21	=21	=21	=21	=21	=21	=21	=21	=21	=21
!	!	!	!	!	!	!	!	!	!	!	!LO:TX:a:t=5	!LO:TX:a:t=5	!LO:TX:a:t=2.	!LO:TX:a:t=2.	!	!LO:TX:a:t=5.
4E\	4E\	.	8E/L	.	8r	.	8r	.	4B\	ge-	00r	00r	0r	0r	.	00r
.	.	.	8G#/	.	8B/L	.	(8e/L	.	.	.	.	.	.	.	.	.
4r	4r	.	8B/	.	8e/	.	8g#/	.	4B\	-ne-	.	.	.	.	.	.
.	.	.	8G#/J	.	8g#/J	.	8e/J	.	.	.	.	.	.	.	.	.
4F#\	4F#\	.	8F#/L	.	8c#/L	.	8a#X/L	.	(8c#\	-ra-	.	.	.	.	.	.
.	.	.	8A#X/	.	8f#/	.	8f#/	.	16d\LL	-ti-	.	.	.	.	.	.
.	.	.	.	.	.	.	.	.	16c#\JJ)	.	.	.	.	.	.	.
4r	4r	.	8c#/	.	8c#/	.	8a#/	.	8B\	-o-	.	.	.	.	.	.
.	.	.	8A#/J	.	8f#/J	.	8f#/J)	.	8c#\	-nem	.	.	.	.	.	.
!LO:LB:g=original	!LO:LB:g=original	!	!	!	!	!	!	!	!LO:LB:g=original	!	!	!	!	!	!	!
=22	=22	=22	=22	=22	=22	=22	=22	=22	=22	=22	=22	=22	=22	=22	=22	=22
4B\	4B\	.	8B\L	.	8r	.	8r	.	(8c#\	o-	.	.	.	.	.	.
.	.	.	8d\	.	8d/L	.	(8f#/L	.	16e\LL	.	.	.	.	.	.	.
.	.	.	.	.	.	.	.	.	16d\JJ)	.	.	.	.	.	.	.
4r	4r	.	8f#\	.	8f#/	.	8b/	.	4B\	-nem	.	.	.	.	.	.
.	.	.	8d\J	.	8d/J	.	8f#/J	.	.	.	.	.	.	.	.	.
*	*	*	*	*	*tremolo	*	*	*	*	*	*	*	*	*	*	*
4D\	4D\	.	8D/L	.	8B/L	.	8d/L	.	4r	.	.	.	.	.	.	.
.	.	.	8F#/	.	8d/	.	8f#/	.	.	.	.	.	.	.	.	.
4r	4r	.	8B/	.	8B/	.	8b/	.	4B\	et	.	.	.	.	.	.
.	.	.	8F#/J	.	8d/J	.	8f#/J)	.	.	.	.	.	.	.	.	.
*	*	*	*	*	*Xtremolo	*	*	*	*	*	*	*	*	*	*	*
=23	=23	=23	=23	=23	=23	=23	=23	=23	=23	=23	=23	=23	=23	=23	=23	=23
4E\	4E\	.	8E/L	.	8e/L	.	(8B/L	.	4.B\	ge-	.	.	2e/	(2g#\	.	.
.	.	.	8G#/	.	8B/	.	8e/	.	.	.	.	.	.	.	.	.
4r	4r	.	8B/	.	8G#/	.	8g#/	.	.	.	.	.	.	.	.	.
.	.	.	8G#/J	.	8B/J	.	8e/J)	.	8B\	-ne-	.	.	.	.	.	.
4D#X\	4D#X\	.	8F#/L	.	8A/L	.	(8B/L	.	4B\	-ra-	.	.	2f#/	2a\)	p	.
.	.	.	8A/	.	8B/	.	8f#/	.	.	.	.	.	.	.	.	.
4r	4r	.	8B/	.	8d#X/	.	8a/	.	(8c#\	.	.	.	.	.	.	.
.	.	.	8A/J	.	8A/J	.	8f#/J)	.	8B\)	-ti-	.	.	.	.	.	.
!	!	!	!LO:LB:g=original	!	!	!	!	!	!	!	!	!	!LO:LB:g=original	!	!	!
=24	=24	=24	=24	=24	=24	=24	=24	=24	=24	=24	=24	=24	=24	=24	=24	=24
4E\	4E\	.	8G#\L	.	8G#/L	.	(8e/L	.	4.B\	-o-	.	.	4e/	4g#\	.	.
.	.	.	8B\	.	8B/	.	8g#/	.	.	.	.	.	.	.	.	.
4r	4r	.	8e\	.	8e/	.	8b/	.	.	.	.	.	4r	4r	.	.
.	.	.	8B\J	.	8B/J	.	8g#/J)	.	8G#\	-nem	.	.	.	.	.	.
!	!	!	!	!	!	!	!	!	!LO:TUP:problem:klamra łukowa, kropka zamiast numeru	!	!	!	!	!	!	!
4A\	4A\	.	8A\L	.	8A/L	.	(8c#/L	.	12F#\L	ge-	.	.	2r	2r	.	.
.	.	.	.	.	.	.	.	.	12A\	.	.	.	.	.	.	.
.	.	.	8c#\	.	8c#/	.	8f#/	.	.	.	.	.	.	.	.	.
.	.	.	.	.	.	.	.	.	12G#\J|	-ne-	.	.	.	.	.	.
!	!	!	!	!	!	!	!	!	!LO:TUP:problem:klamra łukowa, kropka zamiast numeru	!	!	!	!	!	!	!
4r	4r	.	8f#\	.	8f#/	.	8a/	.	12B\L	-ra-	.	.	.	.	.	.
.	.	.	.	.	.	.	.	.	12A\	.	.	.	.	.	.	.
.	.	.	8c#\J	.	8c#/J	.	8f#/J)	.	.	.	.	.	.	.	.	.
.	.	.	.	.	.	.	.	.	12F#\J|	-ti-	.	.	.	.	.	.
!	!	!	!	!	!LO:LB:g=original	!	!	!	!LO:LB:g=original	!	!	!	!	!	!	!
=25	=25	=25	=25	=25	=25	=25	=25	=25	=25	=25	=25	=25	=25	=25	=25	=25
4B\	4B\	.	8B\L	.	8B/L	.	(8B/L	.	(4.E\	-o-	1r	1r	1r;	1r;	.	1r
.	.	.	8g#\	.	8g#/	.	8e/	.	.	.	.	.	.	.	.	.
4r	4r	.	8e\	.	8e/	.	8g#/	.	.	.	.	.	.	.	.	.
.	.	.	8g#\J	.	8g#/J	.	8e/J)	.	8G#\)	.	.	.	.	.	.	.
4BB/	4BB/	.	4B/	.	4B/	.	4B/	.	4BB/	.	.	.	.	.	.	.
.	.	.	.	.	.	.	.	.	8qqBB/L	.	.	.	.	.	.	.
.	.	.	.	.	.	.	.	.	8qqD/	.	.	.	.	.	.	.
.	.	.	.	.	.	.	.	.	8qqF#/	.	.	.	.	.	.	.
.	.	.	.	.	.	.	.	.	8qqE/	.	.	.	.	.	.	.
.	.	.	.	.	.	.	.	.	8qqD/	.	.	.	.	.	.	.
.	.	.	.	.	.	.	.	.	8qqF#/	.	.	.	.	.	.	.
.	.	.	.	.	.	.	.	.	8qqA/	.	.	.	.	.	.	.
.	.	.	.	.	.	.	.	.	8qqG#/	.	.	.	.	.	.	.
.	.	.	.	.	.	.	.	.	8qqF#/	.	.	.	.	.	.	.
.	.	.	.	.	.	.	.	.	8qqA/	.	.	.	.	.	.	.
.	.	.	.	.	.	.	.	.	8qqc#/	.	.	.	.	.	.	.
.	.	.	.	.	.	.	.	.	8qqB/J	.	.	.	.	.	.	.
.	.	.	.	.	.	.	.	.	4qqd;\	.	.	.	.	.	.	.
.	.	.	.	.	.	.	.	.	8qqc#\L	.	.	.	.	.	.	.
.	.	.	.	.	.	.	.	.	8qqB\	.	.	.	.	.	.	.
.	.	.	.	.	.	.	.	.	8qqA\	.	.	.	.	.	.	.
.	.	.	.	.	.	.	.	.	8qqG#\	.	.	.	.	.	.	.
.	.	.	.	.	.	.	.	.	8qqA\	.	.	.	.	.	.	.
.	.	.	.	.	.	.	.	.	8qqF#\	.	.	.	.	.	.	.
.	.	.	.	.	.	.	.	.	8qqD\J	.	.	.	.	.	.	.
.	.	.	.	.	.	.	.	.	4qqBB/	.	.	.	.	.	.	.
.	.	.	.	.	.	.	.	.	4qqAA/	.	.	.	.	.	.	.
.	.	.	.	.	.	.	.	.	4qqGG#/	.	.	.	.	.	.	.
.	.	.	.	.	.	.	.	.	4qqFF#/	.	.	.	.	.	.	.
!	!LO:TX:b:i:t=Ferma	!	!	!	!	!	!	!	!	!	!	!	!	!	!	!
!LO:TX:b:i:t=Ferma.	!LO:TX:b:i:t=Rondo segue	!	!	!	!LO:TX:b:i:t=Ferma.	!	!LO:TX:b:i:t=Fermada	!	!	!	!	!	!LO:TX:b:i:t=Rondo segue	!LO:TX:b:i:t=Rondo segue	!	!LO:TX:b:i:t=Ferma.
4r;	4r;	.	4r;	.	4r;	.	4r;	.	4EE/	-nem	.	.	.	.	.	.
==	==	==	==	==	==	==	==	==	==	==	==	==	==	==	==	==
*-	*-	*-	*-	*-	*-	*-	*-	*-	*-	*-	*-	*-	*-	*-	*-	*-
!!!system-decoration: [g1]{g2}s6[g3]s11
!!!RDF**kern: > = above
!!!RDF**dynam: p = "p:"
!!!AIN: 2 clars 1 cor 3 empty 1 flt 1 organ 1 viola 2 violn
!!!ENC: Marta Lawrence
!!!END: 2020-12-20
!!!ENC: Andrzej Kubiczek
!!!END: 2020-06-30
!!!RDF**kern: | = vertical stroke
